korla/apps/scalable/emule.svg

<!DOCTYPE svg  PUBLIC '-//W3C//DTD SVG 1.1//EN'  'http://www.w3.org/Graphics/SVG/1.1/DTD/svg11.dtd'>
<svg style="clip-rule:evenodd;fill-rule:evenodd;stroke-linejoin:round;stroke-miterlimit:1.41421" version="1.1" viewBox="0 0 64 64" xmlns="http://www.w3.org/2000/svg">
 <g transform="matrix(1.0539,0,0,1.0539,-1.72495,-1.72488)">
  <circle cx="32" cy="31.999" r="30.362" style="fill:url(#_Linear1)"/>
 </g>
 <circle cx="32" cy="31.999" r="30.362" style="fill:url(#_Linear2)"/>
 <g transform="matrix(.933684 0 0 .933684 -.108501 -1.86552)">
  <g transform="matrix(.94202 -.335558 .43008 1.20737 -22.2436 3.86223)">
   <circle cx="44.07" cy="57.999" r="4" style="fill:rgb(236,55,55)"/>
  </g>
  <path d="m43.688 1.998c-0.591-8e-3 -1.556 1.276-2.324 2.426-1.75 2.619-4.296 5.485-6.086 9.094-1.78 3.589-1.229 3.42-1.017 10.946 1.33 0.073 4.147 0.773 5.388 1.395 0.181-0.312 0.33-0.842 0.526-1.162 3.232-5.243 3.673-13.278 3.941-19.668 0.095-2.252 0.032-3.025-0.428-3.031zm-28.415 11.092c-1.952 0.125 1.338 6.368 2.549 8.24 1.099 1.699 3.827 4.595 6.01 6.938 0.467 0.502 0.885 0.937 1.28 1.349 0 0 0.255 0.351 0.422 0.2 0.941-0.851 4-4.156 5.167-4.606l-0.154-0.244c-3.203-4.761-7.627-7.798-14.039-11.449-0.553-0.315-0.956-0.446-1.235-0.428z" style="fill-rule:nonzero;fill:rgb(137,92,51)"/>
  <path d="m33.582 23.998c-4.407 0.411-7.321 2.752-9.045 6.074-0.268 0.83-0.413 1.751-0.413 2.759 0 3.484 1.797 6.669 1.198 10.173-0.809 4.728-4.444 7.239-2.845 11.575 0.033 0.107 0.043 0.203 0.082 0.311 0.33 0.917 0.987 1.867 1.91 2.927 0.149 0.171 0.327 0.32 0.509 0.467 0.725 0.599 1.682 1.014 2.785 1.282 0.754 0.184 1.572 0.304 2.416 0.376 0.287 0.025 0.577 0.043 0.87 0.057l0.249-0.032c2.961 0.115 6.064-0.217 7.879-0.314 0.433-0.024 0.869-0.071 1.302-0.141 1.34-0.214 2.664-0.643 3.883-1.244h8e-3c0.059-0.03 0.111-0.069 0.169-0.1 0.465-0.237 0.92-0.49 1.346-0.776 1.364-0.915 2.506-2.065 3.251-3.375 0.635-1.118 0.979-2.354 0.93-3.659-0.016-1.352-0.431-2.779-1.374-4.232-3.07-4.736-4.647-9.234-5.971-15.289-0.093-0.922-1.023-3.316-1.528-4.002-1.733-2.125-5.193-2.825-7.611-2.837z" style="fill-rule:nonzero;fill:rgb(195,126,63)"/>
  <path d="m39.984 42.005c1.593 0 3.066-0.033 4.166 0.35 1.187 0.414 1.94 1.314 1.94 3.266 0 1.786-2.778 4.405-3.604 6.854 0.278 2.103 0.954 4.186 1.885 5.792 0.527-0.261 1.034-0.553 1.514-0.875 1.363-0.915 2.503-2.065 3.248-3.376 1.255-2.21 1.385-4.877-0.443-7.64-4.43-8.63-21.836-2.402-25.159 1.248-0.386 1.123-2.272 3.623-0.96 7.267 0.329 0.917 0.986 1.865 1.908 2.925 0.746 0.856 1.915 1.396 3.293 1.725 0.754 0.18 1.57 0.296 2.414 0.367 0.287 0.024 0.577 0.042 0.869 0.057-2e-3 -1.348 0.095-2.691 0.066-3.973-2e-3 -0.112-6e-3 -0.223-0.01-0.333-0.29-2.944-5.702-3.509-5.702-7.645 0-0.858 0.284-1.597 0.777-2.233 2.453-3.16 10.085-3.776 13.798-3.776z" style="fill-rule:nonzero;fill:white"/>
  <path d="m31.055 59.965c-4e-3 -2.799 0.42-5.576-0.749-7.834-1.173-2.264-2.469-4.224-4.12-6.35" style="fill:none"/>
  <path d="m44.371 58.267c-1.238-2.135-2.025-5.113-2.025-7.861 0-2.131 0.799-5.875 1.804-8.051" style="fill:none"/>
  <path d="m31.121 55.992c0.103-3.24-5.712-3.691-5.712-7.978 0-5.121 10.115-6.009 14.575-6.009 3.313 0 6.106-0.145 6.106 3.616 0 1.786-2.778 4.405-3.604 6.854" style="fill:none"/>
  <path d="m39.984 42.005c-3.713 0-11.345 0.616-13.798 3.776 1.651 2.126 2.947 4.086 4.12 6.35 0.557 1.076 0.752 2.27 0.804 3.528 0.011 0.107 0.015 0.218 0.011 0.333 0.029 1.282-0.068 2.625-0.066 3.973 3.033 0.145 6.259-0.212 8.123-0.312 0.434-0.023 0.868-0.07 1.302-0.14 1.342-0.215 2.67-0.644 3.89-1.246-0.93-1.606-1.607-3.689-1.885-5.792-0.091-0.693-0.14-1.388-0.14-2.069 0-2.131 0.799-5.875 1.805-8.051-1.1-0.384-2.573-0.35-4.167-0.35h1e-3z" style="fill-rule:nonzero;fill:rgb(162,162,162)"/>
  <path d="m30.306 52.131c-1.173-2.264-2.469-4.224-4.12-6.35-0.493 0.636-0.777 1.375-0.777 2.233 0 4.136 5.412 4.701 5.701 7.645-0.052-1.258-0.247-2.452-0.804-3.528z" style="fill-rule:nonzero;fill:rgb(63,63,63)"/>
  <path d="m44.15 42.355c-1.005 2.176-1.804 5.92-1.804 8.051 0 0.681 0.048 1.376 0.14 2.069 0.826-2.449 3.604-5.068 3.604-6.854 0-1.952-0.753-2.852-1.94-3.266z" style="fill-rule:nonzero;fill:rgb(63,63,63)"/>
  <path d="m37.45 40.12c0.953 0.717 5.538 1.593 5.55-0.086 0.011-1.653-0.05-3.057-0.272-3.987-0.222-0.929-0.675-2.691-1.586-3.449-0.573-0.477-2.073-0.751-2.921-0.511-0.848 0.239-2.219 3.928-2.22 5.135-2e-3 1.577 0.496 2.181 1.449 2.898z" style="fill:none"/>
  <path d="m38.221 32.087c-1.952 1.288-2.219 3.928-2.22 5.135-2e-3 1.577 0.181 2.096 1.134 2.812 0.952 0.717 4.398 1.285 5.593-0.35 0.975-1.335 0.195-2.701 0-3.637-0.678-3.244-2.925-5.004-4.507-3.96z" style="fill-rule:nonzero;fill:white"/>
  <circle cx="38.501" cy="37.499" r="1.501" style="fill:rgb(63,63,63)"/>
  <path d="m29.349 41.856c2.207-1.045 4.014-2.203 3.589-5.374-0.165-1.235-1.786-3.325-2.811-3.988-2.588-1.674-4.325 1.234-4.108 3.652 0.16 1.798 1.122 6.754 3.33 5.71z" style="fill:none"/>
  <path d="m33.552 37.052c-0.165-1.235-0.953-3.413-3.425-4.558-2.797-1.296-4.325 1.234-4.108 3.652 0.16 1.798 0.902 5.976 3.33 5.71 2.645-0.291 4.627-1.633 4.203-4.804z" style="fill-rule:nonzero;fill:white"/>
  <circle cx="30.501" cy="37.499" r="1.501" style="fill:rgb(63,63,63)"/>
 </g>
 <defs>
  <linearGradient id="_Linear1" x2="1" gradientTransform="matrix(.889594 60.7237 -60.7237 .889594 31.1104 1.63665)" gradientUnits="userSpaceOnUse">
   <stop style="stop-color:rgb(0,125,175)" offset="0"/>
   <stop style="stop-color:rgb(0,96,255)" offset="1"/>
  </linearGradient>
  <linearGradient id="_Linear2" x2="1" gradientTransform="matrix(.889594 60.7237 -60.7237 .889594 31.1104 1.63665)" gradientUnits="userSpaceOnUse">
   <stop style="stop-color:rgb(0,51,71)" offset="0"/>
   <stop style="stop-color:rgb(0,18,39)" offset="1"/>
  </linearGradient>
 </defs>
</svg>

<?xml version="1.0" encoding="UTF-8" standalone="no"?>
<!DOCTYPE svg PUBLIC "-//W3C//DTD SVG 1.1//EN" "http://www.w3.org/Graphics/SVG/1.1/DTD/svg11.dtd">
<svg width="100%" height="100%" viewBox="0 0 64 64" version="1.1" xmlns="http://www.w3.org/2000/svg" xmlns:xlink="http://www.w3.org/1999/xlink" xml:space="preserve" xmlns:serif="http://www.serif.com/" style="fill-rule:evenodd;clip-rule:evenodd;stroke-linejoin:round;stroke-miterlimit:1.41421;">
    <g transform="matrix(1.0539,0,0,1.0539,-1.72495,-1.72488)">
        <circle cx="32" cy="31.999" r="30.362" style="fill:url(#_Linear1);"/>
    </g>
    <circle cx="32" cy="31.999" r="30.362" style="fill:url(#_Linear2);"/>
    <g transform="matrix(0.933684,0,0,0.933684,-0.108501,-1.86552)">
        <g transform="matrix(0.94202,-0.335558,0.43008,1.20737,-22.2436,3.86223)">
            <circle cx="44.07" cy="57.999" r="4" style="fill:rgb(236,55,55);"/>
        </g>
        <path d="M43.688,1.998C43.097,1.99 42.132,3.274 41.364,4.424C39.614,7.043 37.068,9.909 35.278,13.518C33.498,17.107 34.049,16.938 34.261,24.464C35.591,24.537 38.408,25.237 39.649,25.859C39.83,25.547 39.979,25.017 40.175,24.697C43.407,19.454 43.848,11.419 44.116,5.029C44.211,2.777 44.148,2.004 43.688,1.998ZM15.273,13.09C13.321,13.215 16.611,19.458 17.822,21.33C18.921,23.029 21.649,25.925 23.832,28.268C24.299,28.77 24.717,29.205 25.112,29.617C25.112,29.617 25.367,29.968 25.534,29.817C26.475,28.966 29.534,25.661 30.701,25.211L30.547,24.967C27.344,20.206 22.92,17.169 16.508,13.518C15.955,13.203 15.552,13.072 15.273,13.09Z" style="fill:rgb(137,92,51);fill-rule:nonzero;"/>
        <path d="M33.582,23.998C29.175,24.409 26.261,26.75 24.537,30.072C24.269,30.902 24.124,31.823 24.124,32.831C24.124,36.315 25.921,39.5 25.322,43.004C24.513,47.732 20.878,50.243 22.477,54.579C22.51,54.686 22.52,54.782 22.559,54.89C22.889,55.807 23.546,56.757 24.469,57.817C24.618,57.988 24.796,58.137 24.978,58.284C25.703,58.883 26.66,59.298 27.763,59.566C28.517,59.75 29.335,59.87 30.179,59.942C30.466,59.967 30.756,59.985 31.049,59.999L31.298,59.967C34.259,60.082 37.362,59.75 39.177,59.653C39.61,59.629 40.046,59.582 40.479,59.512C41.819,59.298 43.143,58.869 44.362,58.268L44.37,58.268C44.429,58.238 44.481,58.199 44.539,58.168C45.004,57.931 45.459,57.678 45.885,57.392C47.249,56.477 48.391,55.327 49.136,54.017C49.771,52.899 50.115,51.663 50.066,50.358C50.05,49.006 49.635,47.579 48.692,46.126C45.622,41.39 44.045,36.892 42.721,30.837C42.628,29.915 41.698,27.521 41.193,26.835C39.46,24.71 36,24.01 33.582,23.998L33.582,23.998Z" style="fill:rgb(195,126,63);fill-rule:nonzero;"/>
        <path d="M39.984,42.005C41.577,42.005 43.05,41.972 44.15,42.355C45.337,42.769 46.09,43.669 46.09,45.621C46.09,47.407 43.312,50.026 42.486,52.475C42.764,54.578 43.44,56.661 44.371,58.267C44.898,58.006 45.405,57.714 45.885,57.392C47.248,56.477 48.388,55.327 49.133,54.016C50.388,51.806 50.518,49.139 48.69,46.376C44.26,37.746 26.854,43.974 23.531,47.624C23.145,48.747 21.259,51.247 22.571,54.891C22.9,55.808 23.557,56.756 24.479,57.816C25.225,58.672 26.394,59.212 27.772,59.541C28.526,59.721 29.342,59.837 30.186,59.908C30.473,59.932 30.763,59.95 31.055,59.965C31.053,58.617 31.15,57.274 31.121,55.992C31.119,55.88 31.115,55.769 31.111,55.659C30.821,52.715 25.409,52.15 25.409,48.014C25.409,47.156 25.693,46.417 26.186,45.781C28.639,42.621 36.271,42.005 39.984,42.005L39.984,42.005Z" style="fill:white;fill-rule:nonzero;"/>
        <path d="M31.055,59.965C31.051,57.166 31.475,54.389 30.306,52.131C29.133,49.867 27.837,47.907 26.186,45.781" style="fill:none;"/>
        <path d="M44.371,58.267C43.133,56.132 42.346,53.154 42.346,50.406C42.346,48.275 43.145,44.531 44.15,42.355" style="fill:none;"/>
        <path d="M31.121,55.992C31.224,52.752 25.409,52.301 25.409,48.014C25.409,42.893 35.524,42.005 39.984,42.005C43.297,42.005 46.09,41.86 46.09,45.621C46.09,47.407 43.312,50.026 42.486,52.475" style="fill:none;"/>
        <path d="M39.984,42.005C36.271,42.005 28.639,42.621 26.186,45.781C27.837,47.907 29.133,49.867 30.306,52.131C30.863,53.207 31.058,54.401 31.11,55.659C31.121,55.766 31.125,55.877 31.121,55.992C31.15,57.274 31.053,58.617 31.055,59.965C34.088,60.11 37.314,59.753 39.178,59.653C39.612,59.63 40.046,59.583 40.48,59.513C41.822,59.298 43.15,58.869 44.37,58.267C43.44,56.661 42.763,54.578 42.485,52.475C42.394,51.782 42.345,51.087 42.345,50.406C42.345,48.275 43.144,44.531 44.15,42.355C43.05,41.971 41.577,42.005 39.983,42.005L39.984,42.005Z" style="fill:rgb(162,162,162);fill-rule:nonzero;"/>
        <path d="M30.306,52.131C29.133,49.867 27.837,47.907 26.186,45.781C25.693,46.417 25.409,47.156 25.409,48.014C25.409,52.15 30.821,52.715 31.11,55.659C31.058,54.401 30.863,53.207 30.306,52.131Z" style="fill:rgb(63,63,63);fill-rule:nonzero;"/>
        <path d="M44.15,42.355C43.145,44.531 42.346,48.275 42.346,50.406C42.346,51.087 42.394,51.782 42.486,52.475C43.312,50.026 46.09,47.407 46.09,45.621C46.09,43.669 45.337,42.769 44.15,42.355L44.15,42.355Z" style="fill:rgb(63,63,63);fill-rule:nonzero;"/>
        <path d="M37.45,40.12C38.403,40.837 42.988,41.713 43,40.034C43.011,38.381 42.95,36.977 42.728,36.047C42.506,35.118 42.053,33.356 41.142,32.598C40.569,32.121 39.069,31.847 38.221,32.087C37.373,32.326 36.002,36.015 36.001,37.222C35.999,38.799 36.497,39.403 37.45,40.12L37.45,40.12Z" style="fill:none;"/>
        <path d="M38.221,32.087C36.269,33.375 36.002,36.015 36.001,37.222C35.999,38.799 36.182,39.318 37.135,40.034C38.087,40.751 41.533,41.319 42.728,39.684C43.703,38.349 42.923,36.983 42.728,36.047C42.05,32.803 39.803,31.043 38.221,32.087Z" style="fill:white;fill-rule:nonzero;"/>
        <circle cx="38.501" cy="37.499" r="1.501" style="fill:rgb(63,63,63);"/>
        <path d="M29.349,41.856C31.556,40.811 33.363,39.653 32.938,36.482C32.773,35.247 31.152,33.157 30.127,32.494C27.539,30.82 25.802,33.728 26.019,36.146C26.179,37.944 27.141,42.9 29.349,41.856Z" style="fill:none;"/>
        <path d="M33.552,37.052C33.387,35.817 32.599,33.639 30.127,32.494C27.33,31.198 25.802,33.728 26.019,36.146C26.179,37.944 26.921,42.122 29.349,41.856C31.994,41.565 33.976,40.223 33.552,37.052Z" style="fill:white;fill-rule:nonzero;"/>
        <circle cx="30.501" cy="37.499" r="1.501" style="fill:rgb(63,63,63);"/>
    </g>
    <defs>
        <linearGradient id="_Linear1" x1="0" y1="0" x2="1" y2="0" gradientUnits="userSpaceOnUse" gradientTransform="matrix(0.889594,60.7237,-60.7237,0.889594,31.1104,1.63665)"><stop offset="0" style="stop-color:rgb(0,125,175);stop-opacity:1"/><stop offset="1" style="stop-color:rgb(0,96,255);stop-opacity:1"/></linearGradient>
        <linearGradient id="_Linear2" x1="0" y1="0" x2="1" y2="0" gradientUnits="userSpaceOnUse" gradientTransform="matrix(0.889594,60.7237,-60.7237,0.889594,31.1104,1.63665)"><stop offset="0" style="stop-color:rgb(0,51,71);stop-opacity:1"/><stop offset="1" style="stop-color:rgb(0,18,39);stop-opacity:1"/></linearGradient>
    </defs>
</svg>
